public/flags/MK.svg

<svg fill="none" height="53" viewBox="0 0 61 53" width="61" xmlns="http://www.w3.org/2000/svg" xmlns:xlink="http://www.w3.org/1999/xlink"><mask id="a" height="43" maskUnits="userSpaceOnUse" width="59" x="1" y="3"><rect fill="#fff" height="42.5" rx="4.24286" width="59" x="1" y="3"/></mask><rect fill="#fff" height="42.5" rx="4.24286" width="59" x="1" y="3"/><g mask="url(#a)"><path d="m1 3h59v42.5h-59z" fill="#e81b26"/><g clip-rule="evenodd" fill="#ffe94f" fill-rule="evenodd"><path d="m30.5001 31.3334c3.8792 0 7.0238-3.1714 7.0238-7.0834s-3.1446-7.0833-7.0238-7.0833c-3.8791 0-7.0238 3.1713-7.0238 7.0833s3.1447 7.0834 7.0238 7.0834z"/><path d="m38.4901 30.0316 23.0162 16.6543-5.6398 6.3167-18.8301-21.3438c.5416-.4863 1.0295-1.0321 1.4537-1.6272zm1.7456-4.379 19.7643 2.8474v-8.5l-19.7643 2.8474c.0643.4582.0976.9265.0976 1.4026s-.0333.9444-.0976 1.4026zm-1.7456-7.1841 23.0162-16.65439-5.6398-6.31673-18.8301 21.34382c.5416.4863 1.0295 1.0321 1.4537 1.6273zm-9.9189-3.9445c.6237-.1251 1.2686-.1907 1.9288-.1907s1.3052.0657 1.9289.1908l2.2854-11.52407h-8.4285zm3.8577 19.452c-.6237.1251-1.2687.1907-1.9289.1907s-1.3051-.0656-1.9288-.1907l-2.2854 11.524h8.4285zm-8.4653-2.3171-18.83013 21.3437-5.639818-6.3167 23.016248-16.6543c.4241.5951.9121 1.1409 1.4537 1.6273zm-3.1993-6.0063-19.76426 2.8474v-8.5l19.76426 2.8474c-.0644.4582-.0976.9265-.0976 1.4026s.0332.9444.0976 1.4026zm1.7456-7.1842c.4242-.5951.9121-1.141 1.4538-1.6273l-18.8302-21.34372-5.639817 6.31673z"/></g></g></svg>

<svg width="61" height="53" viewBox="0 0 61 53" fill="none" xmlns="http://www.w3.org/2000/svg">
<rect x="1" y="3" width="59" height="42.5" rx="4.24286" fill="white"/>
<mask id="mask0" mask-type="alpha" maskUnits="userSpaceOnUse" x="1" y="3" width="59" height="43">
<rect x="1" y="3" width="59" height="42.5" rx="4.24286" fill="white"/>
</mask>
<g mask="url(#mask0)">
<rect x="1" y="3" width="59" height="42.5" fill="#E81B26"/>
<path fill-rule="evenodd" clip-rule="evenodd" d="M30.5001 31.3334C34.3793 31.3334 37.5239 28.162 37.5239 24.25C37.5239 20.338 34.3793 17.1667 30.5001 17.1667C26.621 17.1667 23.4763 20.338 23.4763 24.25C23.4763 28.162 26.621 31.3334 30.5001 31.3334Z" fill="#FFE94F"/>
<path fill-rule="evenodd" clip-rule="evenodd" d="M38.4901 30.0316L61.5063 46.6859L55.8665 53.0026L37.0364 31.6588C37.578 31.1725 38.0659 30.6267 38.4901 30.0316ZM40.2357 25.6526L60 28.5V20L40.2357 22.8474C40.3 23.3056 40.3333 23.7739 40.3333 24.25C40.3333 24.7261 40.3 25.1944 40.2357 25.6526ZM38.4901 18.4685L61.5063 1.81411L55.8665 -4.50262L37.0364 16.8412C37.578 17.3275 38.0659 17.8733 38.4901 18.4685ZM28.5712 14.524C29.1949 14.3989 29.8398 14.3333 30.5 14.3333C31.1602 14.3333 31.8052 14.399 32.4289 14.5241L34.7143 3.00003H26.2858L28.5712 14.524ZM32.4289 33.976C31.8052 34.1011 31.1602 34.1667 30.5 34.1667C29.8398 34.1667 29.1949 34.1011 28.5712 33.976L26.2858 45.5H34.7143L32.4289 33.976ZM23.9636 31.6589L5.13347 53.0026L-0.506348 46.6859L22.5099 30.0316C22.934 30.6267 23.422 31.1725 23.9636 31.6589ZM20.7643 25.6526L1.00004 28.5V20L20.7643 22.8474C20.6999 23.3056 20.6667 23.7739 20.6667 24.25C20.6667 24.7261 20.6999 25.1944 20.7643 25.6526ZM22.5099 18.4684C22.9341 17.8733 23.422 17.3274 23.9637 16.8411L5.1335 -4.50262L-0.506317 1.81411L22.5099 18.4684Z" fill="#FFE94F"/>
</g>
</svg>
